X:1
T:Since Love Can Enter an Iron Door
M:3/4
L:1/8
K:Bb
 DCB,| D F2 B,D F| B B2 GF D| B,3 CB, A,| B,2 z B,/2B,/2 FB,| F F2 F/2F/2|\
 GA| B B2 FG F| B,3 CB, A,| B,3||
